public/logos/history.svg

<svg width="173" height="200" viewBox="0 0 173 200" fill="none" xmlns="http://www.w3.org/2000/svg">
<path d="M15.8221 146.608V144.006H16.938C16.9778 144.006 17.0177 144.006 17.0974 144.006C19.3691 144.006 21.5212 143.086 23.4342 141.925C25.8653 140.404 27.1804 137.763 27.6188 135.001C27.6985 134.361 27.7782 133.68 27.7782 133.04V130.878V13.1279C27.7384 11.687 27.2601 6.92415 23.3545 4.64278C20.4451 2.76166 17.8546 2.64158 17.1373 2.64158C17.0576 2.64158 17.0177 2.64158 16.9778 2.64158L15.7822 2.60156V0.040024H72.4544V2.64158H71.6574C71.6175 2.64158 71.5776 2.64158 71.4979 2.64158C70.7806 2.64158 68.1901 2.80168 65.2409 4.68281C61.375 6.92415 60.8968 11.727 60.857 13.1679L60.8171 15.1691V15.7294V16.9702L60.857 52.1113H111.033L111.073 16.9702V15.1691V13.1679C111.033 11.727 110.555 6.92415 106.649 4.68281C103.74 2.80168 101.149 2.68161 100.432 2.68161C100.352 2.68161 100.312 2.68161 100.272 2.68161L99.5551 2.64158V0H156.267V2.64158H155.032C154.992 2.64158 154.952 2.64158 154.872 2.64158C154.155 2.64158 151.564 2.80168 148.615 4.68281C144.749 6.92415 144.271 11.727 144.231 13.1279V130.878V133.08C144.231 133.32 144.072 139.364 148.655 142.005C151.564 143.886 154.155 144.006 154.872 144.006C154.952 144.006 154.992 144.006 155.032 144.006H156.267V146.608H136.38H99.5551L99.5949 143.966H100.352C100.392 143.966 100.432 143.966 100.472 143.966C101.189 143.966 103.74 143.886 106.729 141.965C110.316 139.884 110.993 135.601 111.113 133.88V133.84V83.8103H60.7374L60.6178 133.12L60.6577 134.521C60.7772 136.242 61.654 140.244 65.2807 142.325C68.1901 144.206 70.661 144.046 71.3784 144.046C71.4581 144.046 71.4979 144.046 71.5378 144.046H72.2153V146.648L15.8221 146.608ZM42.6039 133.24H45.1944V69.2015H126.656V133.28H129.246V11.1267H126.656V66.68H45.2342V11.1267H42.6437V133.24H42.6039Z" fill="url(#paint0_linear_9_185)"/>
<path d="M172.009 156.454H0V159.576H171.969V156.454H172.009Z" fill="white"/>
<path d="M7.33286 181.309H19.0499V169.862H25.3468V199.36H19.01V187.352H7.33286V199.36H0.996094V169.862H7.29301V181.309H7.33286Z" fill="white"/>
<path d="M37.1836 199.4H30.8867V169.902H37.1836V199.4Z" fill="white"/>
<path d="M52.0095 180.748L55.7956 182.229C60.4585 183.99 62.7302 186.712 62.7302 190.674C62.7302 196.598 57.8282 200 52.4081 200C47.5459 200 43.2815 197.438 41.4482 192.756L46.8285 189.834C47.8249 192.355 49.9371 194.036 52.4878 194.036C54.5203 194.036 56.234 192.996 56.234 191.075C56.234 189.634 55.2775 188.673 53.1653 187.913L49.6581 186.632C45.3938 185.071 42.6837 182.469 42.6837 178.187C42.6837 172.824 46.7488 169.342 52.2486 169.342C56.5927 169.342 60.4187 171.743 62.2121 175.705L56.9913 178.747C56.1145 176.786 54.5602 175.185 52.4081 175.185C50.4951 175.185 49.14 176.226 49.14 177.787C49.1799 179.227 50.2161 180.068 52.0095 180.748Z" fill="white"/>
<path d="M73.0119 175.785H65.2803V169.902H87.0006V175.785H79.3088V199.4H73.0119V175.785Z" fill="white"/>
<path fill-rule="evenodd" clip-rule="evenodd" d="M88.4355 184.671C88.4355 176.146 95.2506 169.382 103.739 169.382C112.228 169.382 119.043 176.186 119.043 184.671C119.043 193.196 112.228 199.96 103.739 199.96C95.2506 199.96 88.4355 193.156 88.4355 184.671ZM94.8919 184.671C94.8919 189.754 98.7976 193.836 103.739 193.836C108.721 193.836 112.587 189.794 112.587 184.671C112.587 179.588 108.681 175.505 103.739 175.505C98.7577 175.505 94.8919 179.548 94.8919 184.671Z" fill="white"/>
<path fill-rule="evenodd" clip-rule="evenodd" d="M132.953 169.902C139.25 169.902 143.674 173.304 143.674 179.348C143.674 183.55 141.163 186.512 137.656 187.873L145.706 199.44H138.293L131.12 188.633H129.446V199.44H123.229V169.942H132.953V169.902ZM129.446 183.39H132.993C135.504 183.39 137.337 181.909 137.337 179.468C137.337 176.986 135.504 175.585 132.993 175.585H129.446V183.39Z" fill="white"/>
<path d="M158.459 180.708L164.955 169.902H172.009L161.568 186.592V199.4H155.271V186.592L144.829 169.902H152.003L158.459 180.708Z" fill="white"/>
<path d="M166.988 195.117H163.8V196.038H164.916V199.44H165.832V196.038H166.948V195.117H166.988Z" fill="white"/>
<path d="M167.546 195.157H168.662L169.977 198.119L171.292 195.157H172.368V199.44H171.452V196.878L170.296 199.44H169.698L168.542 196.878V199.44H167.626V195.157H167.546Z" fill="white"/>
<defs>
<linearGradient id="paint0_linear_9_185" x1="32.9983" y1="55.0627" x2="149.096" y2="94.6387" gradientUnits="userSpaceOnUse">
<stop offset="1" stop-color="white"/>
</linearGradient>
</defs>
</svg>

<svg xmlns="http://www.w3.org/2000/svg" width="173" height="200" fill="none"><path fill="url(#a)" d="M15.822 146.608v-2.602h1.276c2.271 0 4.423-.92 6.336-2.081 2.431-1.521 3.746-4.162 4.185-6.924.08-.64.16-1.321.16-1.961V13.128c-.04-1.441-.519-6.204-4.424-8.485-2.91-1.881-5.5-2.001-6.218-2.001h-.16l-1.195-.04V.04h56.672v2.602h-.957c-.716 0-3.307.16-6.256 2.04-3.866 2.242-4.344 7.045-4.384 8.486l-.04 2.001v1.801l.04 35.141h50.176l.04-35.14v-3.803c-.04-1.441-.518-6.244-4.424-8.485-2.909-1.881-5.5-2.001-6.217-2.001h-.16l-.717-.04V0h56.712v2.642h-1.395c-.717 0-3.308.16-6.257 2.04-3.866 2.242-4.344 7.045-4.384 8.446V133.08c0 .24-.159 6.284 4.424 8.925 2.909 1.881 5.5 2.001 6.217 2.001h1.395v2.602H99.555l.04-2.642h.877c.717 0 3.268-.08 6.257-2.001 3.587-2.081 4.264-6.364 4.384-8.085V83.81H60.737l-.12 49.31.04 1.401c.12 1.721.997 5.723 4.624 7.804 2.91 1.881 5.38 1.721 6.097 1.721h.837v2.602zm26.782-13.368h2.59V69.201h81.462v64.079h2.59V11.127h-2.59V66.68H45.234V11.127h-2.59V133.24z"/><path fill="#fff" d="M172.009 156.454H0v3.122h171.969v-3.122zM7.333 181.309H19.05v-11.447h6.297v29.498H19.01v-12.008H7.333v12.008H.996v-29.498h6.297v11.447zM37.184 199.4h-6.297v-29.498h6.297zM52.01 180.748l3.786 1.481c4.663 1.761 6.934 4.483 6.934 8.445 0 5.924-4.902 9.326-10.322 9.326-4.862 0-9.126-2.562-10.96-7.244l5.38-2.922c.997 2.521 3.11 4.202 5.66 4.202 2.032 0 3.746-1.04 3.746-2.961 0-1.441-.956-2.402-3.069-3.162l-3.507-1.281c-4.264-1.561-6.974-4.163-6.974-8.445 0-5.363 4.065-8.845 9.565-8.845 4.344 0 8.17 2.401 9.963 6.363l-5.22 3.042c-.877-1.961-2.432-3.562-4.584-3.562-1.913 0-3.268 1.041-3.268 2.602.04 1.44 1.076 2.281 2.87 2.961M73.012 175.785H65.28v-5.883H87v5.883H79.31V199.4h-6.297z"/><path fill="#fff" fill-rule="evenodd" d="M88.436 184.671c0-8.525 6.815-15.289 15.303-15.289a15.247 15.247 0 0 1 15.304 15.289c0 8.525-6.815 15.289-15.304 15.289a15.247 15.247 0 0 1-15.303-15.289m6.456 0c0 5.083 3.906 9.165 8.847 9.165 4.982 0 8.848-4.042 8.848-9.165 0-5.083-3.906-9.166-8.848-9.166-4.981 0-8.847 4.043-8.847 9.166M132.953 169.902c6.297 0 10.721 3.402 10.721 9.446 0 4.202-2.511 7.164-6.018 8.525l8.05 11.567h-7.413l-7.173-10.807h-1.674v10.807h-6.217v-29.498h9.724zm-3.507 13.488h3.547c2.511 0 4.344-1.481 4.344-3.922 0-2.482-1.833-3.883-4.344-3.883h-3.547z" clip-rule="evenodd"/><path fill="#fff" d="m158.459 180.708 6.496-10.806h7.054l-10.441 16.69V199.4h-6.297v-12.808l-10.442-16.69h7.174zM166.988 195.117H163.8v.921h1.116v3.402h.916v-3.402h1.116v-.921zM167.546 195.157h1.116l1.315 2.962 1.315-2.962h1.076v4.283h-.916v-2.562l-1.156 2.562h-.598l-1.156-2.562v2.562h-.916v-4.283z"/><defs><linearGradient id="a" x1="32.998" x2="149.096" y1="55.063" y2="94.639" gradientUnits="userSpaceOnUse"><stop offset="1" stop-color="#fff"/></linearGradient></defs></svg>
